X:1
T:Title
%%score { ( 1 3 ) | ( 2 4 ) }
L:1/8
M:4/4
K:Eb
V:1 treble nm="Grand Piano"
V:3 treble 
V:2 bass 
V:4 bass 
V:1
 z4 z2[Q:1/4=100] E>F | G2 E2 A2 G2 | z2 A,2 E2 G>[FA] | [GB]2 [Ac]2 [GB]2 [EG]2 | [DF]6 E>F | %5
 G2 E2 A2 G2 | [DF]4 z4 | F2 B2 B2 =A2 | [DB]6 [Ac]>[GB] | [FA]2 [EG]2 [FA]2 [DF]2 | %10
 [EG]2 [GB]4 [GB][Ge] | [Bd]2 [Ac]2 [GB]2 [FA]2 | G6 G>A | B2 G2 A2 G2 | %14
 [A,CF]2 [A,C]4 [A,CF]>[CFA] | [B,EG]2 [B,EG]2 [B,DG]2 [A,DF]2 |[M:3/4] [G,E]6 | %17
[M:1/4] [B,GB]>[Ge] |[M:4/4] [Bd]2 [Ac]2 [GB]2 [FA]2 | [EG]>[FA] [GB]4 [GB]>[Ge] | %20
 [Bd]2 [Ac]2 [GB]2 [FA]2 | [EG]6 [EG]>[FA] | [GB]2 G2 A2 B2 | c2 e4 d>c | B2 A2 [EG]2 [DF]2 | %25
[M:3/4] E6 |] %26
V:2
 z4 z2 [E,G,]>[E,A,E] | [E,B,E]2 [E,G,]2 [E,CE]2 [E,B,E]2 | B,2 z2 [E,G,]2 [E,B,E]>[E,B,] | %3
 [E,E]2 [E,E]2 [E,E]2 [E,B,]2 | [B,,B,]6 [E,G,]>[E,A,E] | [E,B,E]2 [E,G,]2 [E,CE]2 [E,B,E]2 | %6
 B,2 z2 [E,G,]2 [E,B,E]>[E,B,E] | [F,B,D]2 [F,DF]2 [F,CE]2 [F,CE]2 | [B,,B,]6 [B,,B,]>[B,,B,] | %9
 [B,,B,]2 [B,,B,]2 [B,,B,]2 [B,,B,]2 | [E,B,]2 [E,E]4 [E,B,][E,B,] | %11
 [B,,B,]2 [B,,B,]2 [B,,B,]2 [B,,B,]2 | [E,B,E]6 [E,B,E]>[E,A,E] | %13
 [E,G,E]2 [E,B,E]2 [E,CE]2 [E,B,E]2 | A,,2 A,,4 A,,>A,, | B,,2 B,,2 B,,2 B,,2 |[M:3/4] E,6 | %17
[M:1/4] E,>[E,B,] |[M:4/4] [B,,B,]2 [B,,B,]2 [B,,B,]2 [B,,B,]2 | [E,B,]2 [E,E]4 [E,E]>[E,B,] | %20
 [B,,B,]2 [B,,B,]2 [B,,B,]2 [B,,B,]2 | [E,B,]6 [E,B,]>[E,B,] | %22
 [E,E]2 [E,B,E]2 [F,B,D]2[K:treble] [G,B,E]2 | [A,EA]2 [A,CA]4 [A,DA]>[A,EA] | %24
 [B,EG]2 [B,F]2[K:bass] [B,,B,]2 [B,,A,]2 |[M:3/4] [E,G,]6 |] %26
V:3
 x8 | x8 | [DF]4 z4 | x8 | x8 | x8 | z2 A,2 E2 G>G | x8 | x8 | x8 | x8 | x8 | x8 | x8 | x8 | x8 | %16
[M:3/4] x6 |[M:1/4] x2 |[M:4/4] x8 | x8 | x8 | x8 | x8 | x8 | x8 |[M:3/4] x6 |] %26
V:4
 x8 | x8 | B,,4 z4 | x8 | x8 | x8 | B,,4 z4 | x8 | x8 | x8 | x8 | x8 | x8 | x8 | x8 | x8 | %16
[M:3/4] x6 |[M:1/4] x2 |[M:4/4] x8 | x8 | x8 | x8 | x6[K:treble] x2 | x8 | x4[K:bass] x4 | %25
[M:3/4] x6 |] %26

